images/product.svg

<svg id="outline" height="512" viewBox="0 0 512 512" width="512" xmlns="http://www.w3.org/2000/svg"><path d="m17.82373 493.085a8.00072 8.00072 0 0 0 6.17627 2.915h464a7.99957 7.99957 0 0 0 7.85107-9.53613l-72-368a7.99952 7.99952 0 0 0 -7.85107-6.46387h-64v-40a55.97221 55.97221 0 0 0 -76-52.29419 55.97221 55.97221 0 0 0 -76 52.29419v40h-104a7.99952 7.99952 0 0 0 -7.85107 6.46387l-72 368a8.00063 8.00063 0 0 0 1.6748 6.62113zm102.17627-74.67094 73.90369 61.58594h-147.80738zm289.41357-290.41406 68.86963 352h-255.69677l-68.86957-352h86.28314v48h-16v16h48v-16h-16v-48h80v48h-16v16h48v-16h-16v-48zm-133.41357-90.61865a40.01442 40.01442 0 0 1 20 34.61865v40h-40v-40a40.01442 40.01442 0 0 1 20-34.61865zm20-5.38135a40.04552 40.04552 0 0 1 40 40v40h-24v-40a55.82385 55.82385 0 0 0 -16.83917-39.97876c.28003-.00562.55774-.02124.83917-.02124zm-80 40a40.04552 40.04552 0 0 1 40-40c.28143 0 .55914.01562.83917.02124a55.82385 55.82385 0 0 0 -16.83917 39.97876v40h-24zm-113.41357 56h9.41357v136h16v-136h9.41357l66.41248 339.44165-75.82605-63.18848v-84.25317h-16v84.25317l-75.82611 63.18848z"/><path d="m112 280h16v16h-16z"/><path d="m328 312a40 40 0 1 0 -40-40 40.04552 40.04552 0 0 0 40 40zm0-64a24 24 0 1 1 -24 24 24.0275 24.0275 0 0 1 24-24z"/><path d="m264 336h40v16h-40z"/><path d="m320 336h80v16h-80z"/><path d="m248 368h96v16h-96z"/><path d="m360 368h64v16h-64z"/></svg>

<svg width="512" height="512" viewBox="0 0 512 512" fill="none" xmlns="http://www.w3.org/2000/svg">
<path d="M17.8237 493.085C18.5743 493.997 19.5173 494.731 20.5852 495.235C21.653 495.739 22.8192 496 24 496H488C489.181 496 490.347 495.739 491.415 495.235C492.483 494.731 493.426 493.997 494.176 493.085C494.927 492.173 495.466 491.107 495.756 489.962C496.045 488.817 496.078 487.623 495.851 486.464L423.851 118.464C423.495 116.643 422.517 115.003 421.085 113.824C419.653 112.645 417.855 112 416 112H352V72C352.005 62.9197 349.8 53.9747 345.576 45.9365C341.352 37.8984 335.236 31.0085 327.756 25.8613C320.275 20.7141 311.655 17.4641 302.638 16.3917C293.621 15.3193 284.479 16.4567 276 19.7058C267.521 16.4567 258.379 15.3193 249.362 16.3917C240.345 17.4641 231.725 20.7141 224.244 25.8613C216.764 31.0085 210.648 37.8984 206.424 45.9365C202.2 53.9747 199.995 62.9197 200 72V112H96C94.1448 112 92.3473 112.645 90.9151 113.824C89.4829 115.003 88.505 116.643 88.1489 118.464L16.1489 486.464C15.9222 487.623 15.9548 488.817 16.2443 489.962C16.5339 491.107 17.0733 492.173 17.8237 493.085ZM120 418.414L193.904 480H46.0963L120 418.414ZM409.414 128L478.283 480H222.586L153.717 128H240V176H224V192H272V176H256V128H336V176H320V192H368V176H352V128H409.414ZM276 37.3814C282.077 40.8913 287.123 45.9376 290.633 52.0138C294.144 58.0901 295.995 64.9826 296 72V112H256V72C256.005 64.9826 257.856 58.0901 261.367 52.0138C264.877 45.9376 269.923 40.8913 276 37.3814ZM296 32C306.605 32.0121 316.772 36.2302 324.271 43.7291C331.77 51.2279 335.988 61.3951 336 72V112H312V72C312.003 64.5497 310.515 57.1742 307.623 50.3081C304.731 43.4419 300.493 37.2242 295.161 32.0213C295.441 32.0156 295.719 32 296 32ZM216 72C216.012 61.3951 220.23 51.2279 227.729 43.7291C235.228 36.2302 245.395 32.0121 256 32C256.281 32 256.559 32.0156 256.839 32.0213C251.507 37.2242 247.269 43.4419 244.377 50.3081C241.485 57.1742 239.997 64.5497 240 72V112H216V72ZM102.586 128H112V264H128V128H137.414L203.826 467.442L128 404.253V320H112V404.253L36.1739 467.442L102.586 128Z" fill="white"/>
<path d="M112 280H128V296H112V280Z" fill="white"/>
<path d="M328 312C335.911 312 343.645 309.654 350.223 305.259C356.801 300.864 361.928 294.616 364.955 287.307C367.983 279.998 368.775 271.956 367.231 264.196C365.688 256.437 361.878 249.31 356.284 243.716C350.69 238.122 343.563 234.312 335.804 232.769C328.044 231.225 320.002 232.017 312.693 235.045C305.384 238.072 299.136 243.199 294.741 249.777C290.346 256.355 288 264.089 288 272C288.012 282.605 292.23 292.772 299.729 300.271C307.228 307.77 317.395 311.988 328 312ZM328 248C332.747 248 337.387 249.408 341.334 252.045C345.28 254.682 348.357 258.43 350.173 262.816C351.99 267.201 352.465 272.027 351.539 276.682C350.613 281.338 348.327 285.614 344.971 288.971C341.614 292.327 337.338 294.613 332.682 295.539C328.027 296.465 323.201 295.99 318.816 294.173C314.43 292.357 310.682 289.28 308.045 285.334C305.408 281.387 304 276.747 304 272C304.007 265.637 306.538 259.537 311.037 255.037C315.537 250.538 321.637 248.007 328 248Z" fill="white"/>
<path d="M264 336H304V352H264V336Z" fill="white"/>
<path d="M320 336H400V352H320V336Z" fill="white"/>
<path d="M248 368H344V384H248V368Z" fill="white"/>
<path d="M360 368H424V384H360V368Z" fill="white"/>
</svg>
